X:27
T:The Outlandish Knight
T:Lady Isabel and the Elf Knight
C:Trad
B:Bronson
O:Sharp MSS., I342/. Sung by Mrs. Emma Callow,
O:Bogborough, April 9, I907.
N:No lyrics given in Bronson
M:6/8
L:1/8
K:Cmix
G | GFD C2 G | FDE C2 G/A/ |
BAG cBA | G3-G2 G | BAG ccc |
cCC FE F | GAG FED | C3-C2 |]
